X:304
T: WAER ICH EIN BRUENNLEIN KLAR, BOET ICH DIR KUEHLUNG DAR
N: Z0302
O: Europa, Mitteleuropa, Deutschland, Schwaben
R: Lyrisches Lied, Romanze
M: 3/4
L: 1/8
K: G
B3AB2 | d3cB2 |
A2G2A2 | B2A2G2 |
B2B2^A2 | B2z4 |
B2A2Bc | e3dcB |
B2A2Bc | e3dcB |
BAA2cB | A3z3 |
B2dcBA | G3z3

@@@ Tune index: 10062
